Numix-GalliumOS/32/emblems/cs-xlet-update.svg

<?xml version="1.0" encoding="UTF-8" standalone="no"?>
<svg
   xmlns:dc="http://purl.org/dc/elements/1.1/"
   xmlns:cc="http://creativecommons.org/ns#"
   xmlns:rdf="http://www.w3.org/1999/02/22-rdf-syntax-ns#"
   xmlns:svg="http://www.w3.org/2000/svg"
   xmlns="http://www.w3.org/2000/svg"
   xmlns:sodipodi="http://sodipodi.sourceforge.net/DTD/sodipodi-0.dtd"
   xmlns:inkscape="http://www.inkscape.org/namespaces/inkscape"
   width="32"
   height="32"
   viewBox="0 0 32 32"
   id="svg2"
   version="1.1"
   inkscape:version="0.48.5 r10040"
   sodipodi:docname="cs-xlet-update.svg">
  <metadata
     id="metadata12">
    <rdf:RDF>
      <cc:Work
         rdf:about="">
        <dc:format>image/svg+xml</dc:format>
        <dc:type
           rdf:resource="http://purl.org/dc/dcmitype/StillImage" />
      </cc:Work>
    </rdf:RDF>
  </metadata>
  <defs
     id="defs10" />
  <sodipodi:namedview
     pagecolor="#ffffff"
     bordercolor="#666666"
     borderopacity="1"
     objecttolerance="10"
     gridtolerance="10"
     guidetolerance="10"
     inkscape:pageopacity="0"
     inkscape:pageshadow="2"
     inkscape:window-width="640"
     inkscape:window-height="480"
     id="namedview8"
     showgrid="false"
     inkscape:zoom="7.375"
     inkscape:cx="16"
     inkscape:cy="16"
     inkscape:window-x="0"
     inkscape:window-y="0"
     inkscape:window-maximized="0"
     inkscape:current-layer="svg2" />
  <path
     inkscape:connector-curvature="0"
     style="fill:#ffffff;stroke:#777777;stroke-width:0.52781719"
     d="m 29.070615,16.005737 c 0,7.218773 -5.85158,13.070354 -13.070354,13.070354 -7.2187716,0 -13.0703524,-5.851581 -13.0703524,-13.070354 0,-7.2187732 5.8515808,-13.0703546 13.0703524,-13.0703546 7.218774,0 13.070354,5.8515814 13.070354,13.0703546 z"
     id="path2991" />
  <path
     style="fill:#dc322f;fill-opacity:1"
     d="M 16.078125 6.667969 C 11.445312 6.667969 7.664062 10.589844 7.382812 15.53125 L 4.667969 15.53125 L 9.035156 22.605469 L 13.402344 15.53125 L 10.292969 15.53125 C 10.5625 12.324219 13.046875 9.820312 16.078125 9.820312 C 17.199219 9.820312 18.261719 10.164062 19.148438 10.757812 L 20.644531 8.074219 C 19.316406 7.1875 17.75 6.667969 16.078125 6.667969 Z M 22.964844 9.394531 L 18.597656 16.46875 L 21.707031 16.46875 C 21.4375 19.675781 18.953125 22.179688 15.921875 22.179688 C 14.800781 22.179688 13.738281 21.835938 12.851562 21.242188 L 11.355469 23.925781 C 12.683594 24.8125 14.25 25.332031 15.921875 25.332031 C 20.554688 25.332031 24.335938 21.410156 24.617188 16.46875 L 27.332031 16.46875 Z "
     id="path6" />
</svg>

<svg xmlns="http://www.w3.org/2000/svg" viewBox="0 0 32 32">
 <path d="m 29.07 16.01 c 0 7.219 -5.852 13.07 -13.07 13.07 -7.219 0 -13.07 -5.852 -13.07 -13.07 0 -7.219 5.852 -13.07 13.07 -13.07 7.219 0 13.07 5.852 13.07 13.07 z" style="fill:#fff;stroke:#777;stroke-width:0.528"/>
 <path d="m 16.08 6.668 c -4.633 0 -8.414 3.922 -8.695 8.863 l -2.715 0 l 4.367 7.07 l 4.367 -7.07 l -3.109 0 c 0.27 -3.207 2.754 -5.711 5.785 -5.711 c 1.121 0 2.184 0.344 3.07 0.938 l 1.496 -2.684 c -1.328 -0.887 -2.895 -1.406 -4.566 -1.406 m 6.887 2.727 l -4.367 7.07 l 3.109 0 c -0.27 3.207 -2.754 5.711 -5.785 5.711 c -1.121 0 -2.184 -0.344 -3.07 -0.938 l -1.496 2.684 c 1.328 0.887 2.895 1.406 4.566 1.406 c 4.633 0 8.414 -3.922 8.695 -8.863 l 2.715 0 Z" style="fill:#dc322f;fill-opacity:1"/>
</svg>
